X:1
T:Bromley (London), 76.76.77.76
T:Bromley (London), 76.76.77.76
T:London Tune Book, before 1895
T:Public Domain Courtesy of the Cyber Hymnal™
C:London Tune Book, before 1895
Z:Public Domain
Z:Courtesy of the Cyber Hymnal™
%%score ( 1 2 ) 3
L:1/8
Q:1/4=110
M:4/4
K:Bb
V:1 treble 
V:2 treble 
V:3 bass 
V:1
 [DF]2 [EG]2 F2 [DB]2 | [Fd]2 [Ec]2 [DB]2 [FB]2 | [EG]2 [FB]2 [Fe]2 [Fd]2 | [Fc]8 | %4
 [Gc]2 [F=B]2 [Ec]2 [Fd]2 | [Ee]2 [Ec]2 [DB]2 [^CG]2 | [DF]2 [FB]2 [EB]2 [EA]2 | [DB]8 | %8
 [GB]2 [^FA]2 G2 [GA]2 | [GB]2 [Gc]2 [^Fd]4 | [Fd]2 [FG]2 [Ee]2 [Fd]2 | [Gc]2 [GB]2 [FA]4 | %12
 [CF]2 [FB]2 [Fd]2 [Ec]2 | [Ec]2 [DB]2 F2 [EG]2 | [FA]2 [FB]2 [Fd]2 [Ec]2 | [DB]8 |] %16
V:2
 x4 F2 x2 | x8 | x8 | x8 | x8 | x8 | x8 | x8 | x4 G2 x2 | x8 | x8 | x8 | x8 | x4 F2 x2 | x8 | x8 |] %16
V:3
 [B,,B,]2 [E,B,]2 [D,B,]2 [G,B,]2 | [F,B,]2 [F,A,]2 [B,,B,]2 [D,B,]2 | %2
 [E,B,]2 [D,B,]2 [C,A,]2 [B,,B,]2 | [F,A,]8 | [E,G,]2 [D,G,]2 [C,G,]2 [=B,,G,]2 | %5
 [C,G,]2 [F,A,]2 [G,B,]2 [=E,B,]2 | [F,B,]2 [F,D]2 [F,C]2 [F,C]2 | [B,,B,]8 | %8
 [G,D]2 [D,C]2 [E,B,]2 [C,E]2 | [G,D]2 [E,A,]2 [D,A,]4 | [G,=B,]2 [G,B,]2 [C,C]2 [D,_B,]2 | %11
 [E,G,]2 [=E,C]2 [F,C]4 | [E,A,]2 [D,B,]2 [B,,B,]2 [F,A,]2 | [A,,F,]2 [B,,F,]2 [D,B,]2 [E,B,]2 | %14
 [E,C]2 [D,B,]2 [F,B,]2 [F,A,]2 | [B,,B,]8 |] %16

